X: 41215
T: Trollpolska
R: waltz
M: 3/4
K: Dminor
A,|D2 D>E F>G|A2 A>^c d>e|f>g f>e d>d|c>d c>A F>A|
B>c B>A G>B|A>B A>G F>F|E>F E>D ^C>E|1 D2 D3:|2 D2 D4|
|:a>g f>e f>a|g>a g>e c>e|f>e d>^c d>f|e>f e>^c A2|
d>c B>A B>d|c>d c>A F>F|E>F E>D ^C>E|D2 D4:|

